icons/14x14_trash_filled.svg

<svg xmlns="http://www.w3.org/2000/svg" width="14" height="14" viewBox="0 0 14 14">
  <path fill-rule="evenodd" d="M5,2 C5,1.44771525 5.44771525,1 6,1 L8,1 C8.55228475,1 9,1.44771525 9,2 L11,2 C11.5522847,2 12,2.44771525 12,3 L12,4 C12,4.55228475 11.5522847,5 11,5 L3,5 C2.44771525,5 2,4.55228475 2,4 L2,3 C2,2.44771525 2.44771525,2 3,2 L5,2 Z M3,6 L11,6 L11,12 C11,12.5522847 10.5522847,13 10,13 L4,13 C3.44771525,13 3,12.5522847 3,12 L3,6 Z"/>
</svg>

<svg width="14" height="14" fill="none" xmlns="http://www.w3.org/2000/svg"><path fill-rule="evenodd" clip-rule="evenodd" d="M5 2a1 1 0 0 1 1-1h2a1 1 0 0 1 1 1h2a1 1 0 0 1 1 1v1a1 1 0 0 1-1 1H3a1 1 0 0 1-1-1V3a1 1 0 0 1 1-1h2ZM3 6h8v6a1 1 0 0 1-1 1H4a1 1 0 0 1-1-1V6Z" fill="#000"/></svg>
